IMB-X-Files/The-Ambassadors-Assets/661113ed2adb5bef0ec91e2a_a-icon.svg

<svg fill="none" height="64" viewBox="0 0 191 64" width="191" xmlns="http://www.w3.org/2000/svg" xmlns:xlink="http://www.w3.org/1999/xlink"><clipPath id="a"><path d="m0 0h190.4v64h-190.4z"/></clipPath><g clip-path="url(#a)" fill="#fff"><path d="m82.924 30.4609c0 2.0964-2.0536 2.5242-5.4335 3.166-5.4763 1.0696-9.0274 2.567-9.0274 7.3588 0 3.6793 2.7382 6.2464 7.1877 6.2464 3.3799 0 5.8613-1.3263 7.2304-3.2516h.0856c.4278 2.1392 1.5402 2.9949 3.936 2.9949.8557 0 1.583-.0856 2.6098-.4707v-2.1391c-1.7541.1711-2.0964-.6418-2.0964-2.182v-10.3964c0-5.8186-3.5938-7.6583-8.4283-7.6583-6.5887 0-9.284 3.2944-9.498 7.4872h4.364c.2139-2.8237 1.5402-3.9361 5.134-3.9361 2.9948 0 3.9361 1.1979 3.9361 2.7809zm-6.2892 13.2201c-2.4387 0-3.6366-1.1123-3.6366-3.1232 0-2.2247 1.6258-3.2943 5.3479-4.1072 2.0964-.4278 3.8506-.9412 4.5779-1.4546v3.2943c0 3.551-2.567 5.3907-6.2892 5.3907zm30.8642-27.681v11.3805h-.085c-1.155-1.6686-3.295-3.2516-6.674-3.2516-5.6051 0-9.7551 4.364-9.7551 11.5516s4.15 11.5516 9.7551 11.5516c3.379 0 5.519-1.6686 6.674-3.166h.085v2.5242h4.493v-30.5903zm-5.989 27.5527c-3.9364 0-6.0328-3.5938-6.0328-7.8722s2.0964-7.8722 6.0328-7.8722c3.679 0 5.947 2.9949 5.947 7.8722 0 4.8345-2.268 7.8722-5.947 7.8722zm24.62 3.6794c-6.846 0-10.996-4.749-10.996-11.5516s4.15-11.5516 10.996-11.5516c6.845 0 10.995 4.749 10.995 11.5516s-4.15 11.5516-10.995 11.5516zm0-3.6794c4.278 0 6.503-3.3799 6.503-7.8722 0-4.5351-2.225-7.8722-6.503-7.8722-4.279 0-6.503 3.3371-6.503 7.8722 0 4.4923 2.224 7.8722 6.503 7.8722zm25.865-19.4238c-3.765 0-6.032 1.7114-7.187 3.4227h-.086v-2.8237h-4.492v21.8624h4.492v-13.3057c0-3.2515 2.225-5.3479 5.69-5.3479 3.081 0 4.321 1.8825 4.321 4.8345v13.8191h4.536v-15.1026c0-5.0057-3.209-7.3588-7.274-7.3588zm13.906-3.0804c1.326 0 2.567-.8556 2.567-2.3959 0-1.5402-1.241-2.3531-2.567-2.3531-1.241 0-2.525.8129-2.525 2.3531 0 1.5403 1.284 2.3959 2.525 2.3959zm-2.225 3.6794v21.8624h4.492v-21.8624zm18.515 8.6423c-3.166-.7273-5.605-.8985-5.605-3.1232 0-1.5402 1.455-2.567 4.15-2.567 3.508 0 4.364 1.7541 4.663 3.4654h4.364c-.299-3.8077-3.123-7.0165-9.07-7.0165-5.476 0-8.642 2.8665-8.642 6.4604 0 4.9629 4.706 5.6474 8.172 6.4603 3.208.7701 5.818.984 5.818 3.7221 0 1.3691-1.326 2.9093-4.449 2.9093-4.621 0-5.648-2.0108-5.862-4.3639h-4.364c.214 4.6206 3.252 7.915 10.311 7.915 5.305 0 8.899-2.6098 8.899-6.8026 0-5.2196-4.364-6.1181-8.385-7.0593z"/><path d="m32.8 30.4788c0-6.8547-6.2368-12.4114-6.2368-12.4114s-6.2368 5.5567-6.2368 12.4114c0 6.8546 6.2368 12.4113 6.2368 12.4113s6.2368-5.5567 6.2368-12.4113z"/><path d="m13.9452 34.2289c6.0765 3.4273 7.8839 11.4822 7.8839 11.4822s-8.0442 2.4982-14.12061-.9291c-6.07646-3.4273-7.884027-11.4822-7.884027-11.4822s8.044327-2.4982 14.120737.9291z"/><path d="m39.1847 34.2289c-6.0765 3.4273-7.8839 11.4822-7.8839 11.4822s8.0442 2.4982 14.1207-.9291c6.0763-3.4273 7.8839-11.4822 7.8839-11.4822s-8.0443-2.4982-14.1207.9291z"/></g></svg>

<svg width="191" height="64" viewBox="0 0 191 64" fill="none" xmlns="http://www.w3.org/2000/svg">
    <g clip-path="url(#clip0_3415_429)">
        <path
            d="M82.924 30.4609C82.924 32.5573 80.8704 32.9851 77.4905 33.6269C72.0142 34.6965 68.4631 36.1939 68.4631 40.9857C68.4631 44.665 71.2013 47.2321 75.6508 47.2321C79.0307 47.2321 81.5121 45.9058 82.8812 43.9805H82.9668C83.3946 46.1197 84.507 46.9754 86.9028 46.9754C87.7585 46.9754 88.4858 46.8898 89.5126 46.5047V44.3656C87.7585 44.5367 87.4162 43.7238 87.4162 42.1836V31.7872C87.4162 25.9686 83.8224 24.1289 78.9879 24.1289C72.3992 24.1289 69.7039 27.4233 69.4899 31.6161H73.8539C74.0678 28.7924 75.3941 27.68 78.9879 27.68C81.9827 27.68 82.924 28.8779 82.924 30.4609ZM76.6348 43.681C74.1961 43.681 72.9982 42.5687 72.9982 40.5578C72.9982 38.3331 74.624 37.2635 78.3461 36.4506C80.4425 36.0228 82.1967 35.5094 82.924 34.996V38.2903C82.924 41.8413 80.357 43.681 76.6348 43.681ZM107.499 16V27.3805H107.414C106.259 25.7119 104.119 24.1289 100.74 24.1289C95.1349 24.1289 90.9849 28.4929 90.9849 35.6805C90.9849 42.8681 95.1349 47.2321 100.74 47.2321C104.119 47.2321 106.259 45.5635 107.414 44.0661H107.499V46.5903H111.992V16H107.499ZM101.51 43.5527C97.5736 43.5527 95.4772 39.9589 95.4772 35.6805C95.4772 31.4021 97.5736 27.8083 101.51 27.8083C105.189 27.8083 107.457 30.8032 107.457 35.6805C107.457 40.515 105.189 43.5527 101.51 43.5527ZM126.13 47.2321C119.284 47.2321 115.134 42.4831 115.134 35.6805C115.134 28.8779 119.284 24.1289 126.13 24.1289C132.975 24.1289 137.125 28.8779 137.125 35.6805C137.125 42.4831 132.975 47.2321 126.13 47.2321ZM126.13 43.5527C130.408 43.5527 132.633 40.1728 132.633 35.6805C132.633 31.1454 130.408 27.8083 126.13 27.8083C121.851 27.8083 119.627 31.1454 119.627 35.6805C119.627 40.1728 121.851 43.5527 126.13 43.5527ZM151.995 24.1289C148.23 24.1289 145.963 25.8403 144.808 27.5516H144.722V24.7279H140.23V46.5903H144.722V33.2846C144.722 30.0331 146.947 27.9367 150.412 27.9367C153.493 27.9367 154.733 29.8192 154.733 32.7712V46.5903H159.269V31.4877C159.269 26.482 156.06 24.1289 151.995 24.1289ZM165.901 21.0485C167.227 21.0485 168.468 20.1929 168.468 18.6526C168.468 17.1124 167.227 16.2995 165.901 16.2995C164.66 16.2995 163.376 17.1124 163.376 18.6526C163.376 20.1929 164.66 21.0485 165.901 21.0485ZM163.676 24.7279V46.5903H168.168V24.7279H163.676ZM182.191 33.3702C179.025 32.6429 176.586 32.4717 176.586 30.247C176.586 28.7068 178.041 27.68 180.736 27.68C184.244 27.68 185.1 29.4341 185.399 31.1454H189.763C189.464 27.3377 186.64 24.1289 180.693 24.1289C175.217 24.1289 172.051 26.9954 172.051 30.5893C172.051 35.5522 176.757 36.2367 180.223 37.0496C183.431 37.8197 186.041 38.0336 186.041 40.7717C186.041 42.1408 184.715 43.681 181.592 43.681C176.971 43.681 175.944 41.6702 175.73 39.3171H171.366C171.58 43.9377 174.618 47.2321 181.677 47.2321C186.982 47.2321 190.576 44.6223 190.576 40.4295C190.576 35.2099 186.212 34.3114 182.191 33.3702Z"
            fill="white" />
        <path
            d="M32.8 30.4788C32.8 23.6241 26.5632 18.0674 26.5632 18.0674C26.5632 18.0674 20.3264 23.6241 20.3264 30.4788C20.3264 37.3334 26.5632 42.8901 26.5632 42.8901C26.5632 42.8901 32.8 37.3334 32.8 30.4788Z"
            fill="white" />
        <path
            d="M13.9452 34.2289C20.0217 37.6562 21.8291 45.7111 21.8291 45.7111C21.8291 45.7111 13.7849 48.2093 7.70849 44.782C1.63203 41.3547 -0.175537 33.2998 -0.175537 33.2998C-0.175537 33.2998 7.86879 30.8016 13.9452 34.2289Z"
            fill="white" />
        <path
            d="M39.1847 34.2289C33.1082 37.6562 31.3008 45.7111 31.3008 45.7111C31.3008 45.7111 39.345 48.2093 45.4215 44.782C51.4978 41.3547 53.3054 33.2998 53.3054 33.2998C53.3054 33.2998 45.2611 30.8016 39.1847 34.2289Z"
            fill="white" />
    </g>
    <defs>
        <clipPath id="clip0_3415_429">
            <rect width="190.4" height="64" fill="white" />
        </clipPath>
    </defs>
</svg>
